X:1
T:Heilige Nacht
T:Johann Friedrich Reichardt (1752-1814)
T:Heilige Nacht
T:CPDL, Creative Commons Attribution Non Commercial 3.0
C:Johann Friedrich Reichardt
Z:CPDL, Creative Commons Attribution Non Commercial 3.0
%%score [ ( 1 2 ) 3 4 ]
L:1/8
Q:1/4=80
M:4/4
K:D
V:1 treble nm="S\nA"
V:2 treble 
V:3 treble-8 nm="T"
V:4 bass nm="B"
V:1
!p! A4 A2 A2 |!>(!!<(! !breath!d8!>)!!<)! | A4 A2 A2 | !breath!e8 |!f! f4 e2 d2 | d4 c2 B2 | %6
w: 1.~Hei- li- ge|Nacht,|hei- li- ge|Nacht!|Nacht der un-|end- li- chen|
!>(! (A6 G2)!>)! | F6 z2 |!<(! F4 ^G2 G2 | A4 A2 B2!<)! |!>(! (c6 B2) | !breath!A4!>)! z4 | %12
w: 1.~Lie- *|be!|Dass uns dein|Se- gen ver-|blie- *|be,|
 !>!c4 c2 c2 |!<(! d4 d2 e2 | !breath!e8!<)! |!f! f4 e2 c2 | d4 z4 |!mf! F4 E2 C2 | D8-[Q:1/4=60] | %19
w: wirst du uns|1.~wie- der- ge-|bracht,|hei- li- ge|Nacht,|hei- li- ge|Nacht,|
!pp! D8 |] %20
w: |
V:2
 F4 F2 F2 | F8 | G4 G2 G2 | G8 | F4 G2 A2 | B4 A2 G2 | (F4 E4) | D6 x2 | D4 D2 D2 | C4 C2 ^D2 | %10
w: ||||||||||
 (E4 =D4) | C4 =G4- | G4 G2 G2 | F4 ^G2 G2 | (A6 =G2) | F4 G2 E2 | F4 x4 | D4 C2 A,2 | %18
w: |* wirst|_ _ _||||||
 A,4"^rit."!p! B,2 A,G, | A,8 |] %20
w: * hei- li- ge|Nacht!|
V:3
!p! d4 A2 A2 | !breath!A8 | e4 A2 A2 | !breath!A8 |!f! A4 A2 d2 | (d2 B2) c2 d2 | (d4 c4) | A6 z2 | %8
w: 2.~Hei- li- ge|Nacht,|hei- li- ge|Nacht!|Lass uns im|Er- * den- ge-|2.~drän- *|ge|
 A4 B2 B2 | A4 A2 A2 | (A4 ^G4) | !breath!A4 e4- | e4 e2 e2 | d4 d2 d2 | !breath!c8 |!f! A4 A2 A2 | %16
w: tö- nen der|En- gel Ge-|sän- *|ge, bis|_ un- ser|2.~Christ- tag er-|wacht,|hei- li- ge|
 A4!mf! A4- | A4 G2 G2 | F4!p! G2 FE |!pp! F8 |] %20
w: Nacht, hei-|* li- ge|Nacht, hei- li- ge|Nacht!|
V:4
!p! D,4 D,2 D,2 | !breath!D,8 | C,4 C,2 C,2 | !breath!C,8 |!f! D,4 E,2 F,2 | G,4 G,2 G,2 | %6
w: ||||||
 (A,4 A,,4) | D,6 z2 | D,4 B,,2 E,2 | F,4 F,2 F,2 | E,8 | A,,4 z4 | !>!A,4 ^A,2 A,2 | %13
w: ||||||bis * *|
 B,4 B,2 _B,2 | !breath!A,8 |!f! D,4 C,2 A,,2 | D,4 z4 |!mf! A,,4 A,,2 A,,2 |!p! D,8- |!pp! D,8 |] %20
w: |||||||

